X:285
T: Wie soll ich tun? (3-87), S. 240
N: P1060
O: Lothringen
S: PINCK, Louis: Verklingende Weisen, Bd3, Metz 1933]
R: Fenstergangslied]
M: 2/4
L: 1/16
K: G
D2 | D2G2G2E2 | E2D2D4
A4F2D2 | D4D2D2 | d4B2A2 | G4z2
A2 | A3BA3B | A2A2A2A2 | A4z4
A2G2F2E2 | D2D2D4
G4G2G2 | A4B2G2 | d4B2A2 | G4z2

